X:68
T:score158
L:1/8
Q:1/4=96
M:4/4
I:linebreak $
K:G
 G2 G4 (A>G | .G) z (c2 .B) z (e2 | .d) z g3 .f.e.d |$ (d3 c B/)!>(!(G/A/B/ c/d/e/!>)!f/ | %4
 g3) (b d'be'c' | d'3) (b gdge |$ d) (!>!b2 g fea^c | %7
"_cresc." (d/)e/d/^c/ d/e/f/g/ a/g/f/e/ d/=c/B/A/ |!f! G2) z2 z4 |] %9
